X:1
T:Mi popule
T:Mi popule
C:Anonymous
%%score [ ( 1 2 ) ( 3 4 ) ]
L:1/8
Q:1/4=80
M:4/4
K:Ab
V:1 treble nm=" " snm=" "
V:2 treble 
V:3 bass nm=" " snm=" "
V:4 bass 
V:1
!p!"^Andante" c2 | A2 F2 G2"^|" =E2 | F2 F2 =E2"^|" c2 |!<(! c2 c2 d2!<)! c2 |!>(! B4 A2!>)! z2 | %5
w: 1.|po- pu- le! quid|me- ru- i, in|quo te con- tri-|sta- vi?|
w: 2.|con- di- di ex|ni- hi- lo, te|ex a- bys- so|du- xi.|
w: 3.|qua in re of-|fen- di te! quo-|mo- do vis, ab-|un- de|
w: 4.|o- di- o tam|im- pi- o ut|os- tem me in-|va- dis?|
!mf!!<(! G2 A2 B2!<)! c2 | B2 A2 G2 z2 |"^rit." F2 G2 A2 B2 |"^rit."!p! G4!>)!!>(! !fermata!F2 |] %9
w: 1. ne, qui- bus|de- bu- i,|bo- nis te or-|na- vi?|
w: 2. tam ti- bi|con- tu- li,|men- te te lu-|stra- vi.|
w: 3. men- da- bo,|quod in me|dis- pli- cet, res-|pon- de!|
w: 4. cis cur sup-|pli- ci- o|me ne can- dum|tra- dis?|
V:2
 C2 | C2 C2 C2 C2 | C2 B,2 C2 =E2 | F2 _G2 F2 E2 | (=D2 E2) E2 x2 | E2 E2 FG A2 | G2 F2 =E2 x2 | %7
 C2 =E2 F2 F2 | (F2 =E2) F2 |] %9
V:3
 A,2 | F,2 F,2 =E,2"^|" G,2 | A,2 G,F, G,2"^|" G,2 | A,2 A,2 A,2 A,2 | (A,2 G,_D) C2 z2 | %5
 B,2 C2 D2 E2 | E2 C2 C2 z2 | A,2 B,2 C2 D2 | (D2 CB,) A,2 |] %9
V:4
 F,2 | F,2 A,,2 C,2 C,2 | F,2 D,2 C,2 C,2 | F,2 E,2 D,2 E,2 | (F,2 E,2) A,2 x2 | E,2 C2 B,2 A,2 | %6
 E,2 F,2 C,2 x2 | A,2 G,2 F,E, D,C, | (B,,2 C,2) !fermata![F,,F,]2 |] %9

